Carto/POI/SVG/pharmacy_solid_24px.svg

<svg width="24" height="24" viewBox="0 0 24 24" fill="none" xmlns="http://www.w3.org/2000/svg">
<path d="M17 5.00003H7V3.71003C6.99867 3.4851 7.042 3.26214 7.12746 3.05407C7.21293 2.84601 7.33884 2.65697 7.49789 2.49792C7.65694 2.33887 7.84598 2.21296 8.05404 2.12749C8.26211 2.04203 8.48507 1.9987 8.71 2.00003H15.29C15.5149 1.9987 15.7379 2.04203 15.946 2.12749C16.154 2.21296 16.3431 2.33887 16.5021 2.49792C16.6612 2.65697 16.7871 2.84601 16.8725 3.05407C16.958 3.26214 17.0013 3.4851 17 3.71003V5.00003ZM20 9.00003V22H4V9.00003C4 8.4696 4.21071 7.96089 4.58579 7.58582C4.96086 7.21074 5.46957 7.00003 6 7.00003H18C18.5304 7.00003 19.0391 7.21074 19.4142 7.58582C19.7893 7.96089 20 8.4696 20 9.00003ZM17.5 13H13.5V9.00003H10.5V13H6.5V16H10.5V20H13.5V16H17.5V13Z" fill="#0F1621"/>
</svg>

<svg xmlns="http://www.w3.org/2000/svg" width="24" height="24" viewBox="0 0 24 24"><rect width="24" height="24" style="fill:none;opacity:0"/><path d="M17,5H7V3.71A1.7,1.7,0,0,1,8.71,2h6.58A1.7,1.7,0,0,1,17,3.71Zm3,4V22L4,22V9A2,2,0,0,1,6,7H18A2,2,0,0,1,20,9Zm-2.5,4h-4V9h-3v4h-4v3h4v4h3V16h4Z"/></svg>
